public/avatar/shoe/189.svg

<svg xmlns:xlink="http://www.w3.org/1999/xlink" height="38.3" width="36.05" xmlns="http://www.w3.org/2000/svg"><use height="17.6" transform="translate(9.95 12.15)" width="21.3" xlink:href="#a"/><defs><g id="a" fill-rule="evenodd"><path d="M-5.3 1.45-5.7.6l1.3-1.05.95.4L-1.6.7l2.6.7.25-.2.4-.25-6.4-1.8Q-6-.6-6.15.65l.1 1-.7.5-1.05-.65 1.25.1L-6.8.45-6-.5l1.1-.75 1.2.45.5-.2Q.15-2.35 3.95-2.6q1.15-.3 1.85.35.9.8 1 1.9l.65 5.9V7.1q-.2 2.05-2 3-1.75 1.05-3.2 2.25-3.8 3.05-8.7 2.45l-5.5-.95q-1.25-.4-1.55-1.65l-.35-4q.05-1.45.75-2.8l1.15-.65q1.6-.6 1.9-1.6l.1-.5.7-.85q.5-.45 1.15-.35l-.35.1q-1.6.75-.85 2.35l-1.35.85-1 .45q-1.05.55-1.3 1.5l-.25 1.8.1 1.2q.8 1 2 1.3 4.85 1.15 9.6.25l.85-.25.9-.45L5 7.7l.95-1 .7-1.15-.1.2.25-3.5q.05-1.5-.55-2.9l-.6-1.3q-.2-.5-1.05-.45-.55.5-.6 1.25L3.75.25l-.3.4-.95.2.7.25q1.1.35 1.2 1.6l-.25 1.6q-.25.75-1 .85l-1.25.2q.8 1.2-.15 2.35l-.95 1-.4.1h-.75l-.9-.4-1.1-1.45-5.6-2.2-1.2-1q0-.6.65-1 .6-.45 1.5-.45l.65.3Q-4.6 3.75-2.3 4.05l1.45.35q1.3 0 1.1-.4l-1.95-.9 2.65.75q1.2.2 1.05-.35l.7-.8v-.15l-.6-.3q-1.6-.7-3.45-.95l-1.3-.65q-1.1-.65-2.3-.4l-.3.85 1.95 1.25-2-.9m5.55 3.5.3.65.5.7-.8 1.3L-.9 7l-.95.05q.5 1 1.6 1.3 2.05-.1 2.15-2.2Q1.35 4.8-.15 4.6l.4.35M4 2.25l-1.15-.8-1.2.1 1.4.65.5.7-.8 1.2-.7-.1-1.2.1 1.75.95 1.15-.55.6-1.75-.35-.5m-.9.9q-.2.05-.3.2l-.4.45.7-.65m3.8 3.7L5.85 7.9l-1.35.9q-2.35 1.45-5.1 2.9l-1.55.5-2 .4-5.7-.65q-1.85-.25-3.3-1l.05 1.15 1.5.9 1.75.55 5.8.55 2-.4 1.4-.45L4.9 10q1.95-1.1 2-3.15M.6 6.4.3 6l-.8.9.15.15.85-.2.1-.45m-.7-.55.05-.45-.2-.25q-.3-.45-1.05-.5-2.8-.5-5.4-1.65l-1.45-.15-.5.8Q-6.2 5.2-3.3 6.3l2.2.3q.7-.15 1-.75" transform="translate(13.85 2.7)"/><path d="m-3.45-.05-.95-.4L-5.7.6l.4.85-1.05 1.15-.65-.3.25-.15.7-.5-.1-1Q-6-.6-4.75-.85l6.4 1.8-.4.25-4.7-1.25m-5.7 3.8 1.2 1q-.15.9.9 1.5l1.3.6q2.4.6 4.5 1.55l.9.4H.4l.4-.1.8-.35q2.9-.65 4.95-2.6l.1-.2-.7 1.15-.95 1-4.75 2.85-10.9-5.8 1.35-.85.15-.15M3.2 1.1 2.5.85l.95-.2.5-.35.65-2.7q.85-.05 1.05.45l.6 1.3q.6 1.4.55 2.9L5.95.4l-2.75.7" fill="#8e0b04" transform="translate(13.85 2.7)"/><path d="m-5.3 1.45 2 .9 1.6.75L.25 4q.2.4-1.1.4l-1.45-.35q-2.3-.3-4.05-1.45l1.05-1.15m-2.65 3.3 5.6 2.2 1.1 1.45q-2.1-.95-4.5-1.55l-1.3-.6q-1.05-.6-.9-1.5M.8 8.7l.95-1q.95-1.15.15-2.35l1.25-.2q.75-.1 1-.85l.25-1.6q-.1-1.25-1.2-1.6L5.95.4l.85 1.85-.25 3.5Q4.5 7.7 1.6 8.35l-.8.35M3.45.65l.3-.4.25-1.4q.05-.75.6-1.25L3.95.3l-.5.35m-2.2.55L1 1.4-1.6.7l-1.85-.75 4.7 1.25M3.1 3.15l-.7.65.4-.45q.1-.15.3-.2M.6 6.4l-.1.45-.85.2-.15-.15.8-.9.3.4" fill="#e21e0a" transform="translate(13.85 2.7)"/><path d="M-7 2.3q-.9 0-1.5.45-.65.4-.65 1l-.15.15q-.75-1.6.85-2.35l.35-.1.3.05 1.05.65-.25.15m11-.05.35.5-.6 1.75-1.15.55L.85 4.1l1.2-.1.7.1.8-1.2-.5-.7-1.4-.65 1.2-.1 1.15.8M.25 4.95l-.4-.35q1.5.2 2.05 1.55-.1 2.1-2.15 2.2-1.1-.3-1.6-1.3L-.9 7l1.15.6.8-1.3-.5-.7-.3-.65" fill="#e0d3d1" transform="translate(13.85 2.7)"/><path d="M-3.3 2.35-5.25 1.1l.3-.85q1.2-.25 2.3.4l1.3.65q1.85.25 3.45.95l.6.3v.15l-.7.8q.15.55-1.05.35L-1.7 3.1l-1.6-.75m3.2 3.5q-.3.6-1 .75l-2.2-.3q-2.9-1.1-5.35-2.65l.5-.8L-6.7 3q2.6 1.15 5.4 1.65.75.05 1.05.5l.2.25-.05.45" fill="#fff" transform="translate(13.85 2.7)"/><path d="M6.9 6.85 6.25 8q-.8 1.1-2 1.7l-2 1.25-2.85 1.7-1.5.7q-4.85.6-9.6-.85-1.25-.35-1.45-1.55 1.45.75 3.3 1l5.7.65 2-.4 1.55-.5q2.75-1.45 5.1-2.9l1.35-.9L6.9 6.85" fill="#f9f4f4" transform="translate(13.85 2.7)"/><path d="M-13.15 10.95q.2 1.2 1.45 1.55 4.75 1.45 9.6.85l1.5-.7 2.85-1.7 2-1.25q1.2-.6 2-1.7l.65-1.15Q6.85 8.9 4.9 10l-5.55 3.25-1.4.45-2 .4-5.8-.55-1.75-.55-1.5-.9-.05-1.15" fill="#cce1ea" transform="translate(13.85 2.7)"/><path d="m.25 10.55-.9.45-.85.25q-4.75.9-9.6-.25-1.2-.3-2-1.3l-.1-1.2.25-1.8q.25-.95 1.3-1.5l1-.45 10.9 5.8" fill="#f9f9f9" transform="translate(13.85 2.7)"/></g></defs></svg>

<?xml version="1.0" encoding="UTF-8" standalone="no"?>
<svg xmlns:xlink="http://www.w3.org/1999/xlink" height="38.3px" width="36.05px" xmlns="http://www.w3.org/2000/svg">
  <g transform="matrix(1.0, 0.0, 0.0, 1.0, 23.8, 14.85)">
    <use height="17.6" transform="matrix(1.0, 0.0, 0.0, 1.0, -13.85, -2.7)" width="21.3" xlink:href="#shape0"/>
  </g>
  <defs>
    <g id="shape0" transform="matrix(1.0, 0.0, 0.0, 1.0, 13.85, 2.7)">
      <path d="M-5.3 1.45 L-5.7 0.6 -4.4 -0.45 -3.45 -0.05 -1.6 0.7 1.0 1.4 1.25 1.2 1.65 0.95 -4.75 -0.85 Q-6.0 -0.6 -6.15 0.65 L-6.05 1.65 -6.75 2.15 -7.8 1.5 -6.55 1.6 -6.8 0.45 -6.0 -0.5 -4.9 -1.25 -3.7 -0.8 -3.2 -1.0 Q0.15 -2.35 3.95 -2.6 5.1 -2.9 5.8 -2.25 6.7 -1.45 6.8 -0.35 L7.45 5.55 7.45 7.1 Q7.25 9.15 5.45 10.1 3.7 11.15 2.25 12.35 -1.55 15.4 -6.45 14.8 L-11.95 13.85 Q-13.2 13.45 -13.5 12.2 L-13.85 8.2 Q-13.8 6.75 -13.1 5.4 L-11.95 4.75 Q-10.35 4.15 -10.05 3.15 L-9.95 2.65 -9.25 1.8 Q-8.75 1.35 -8.1 1.45 L-8.45 1.55 Q-10.05 2.3 -9.3 3.9 L-10.65 4.75 -11.65 5.2 Q-12.7 5.75 -12.95 6.7 L-13.2 8.5 -13.1 9.7 Q-12.3 10.7 -11.1 11.0 -6.25 12.15 -1.5 11.25 L-0.65 11.0 0.25 10.55 5.0 7.7 5.95 6.7 6.65 5.55 6.55 5.75 6.8 2.25 Q6.85 0.75 6.25 -0.65 L5.65 -1.95 Q5.45 -2.45 4.6 -2.4 4.05 -1.9 4.0 -1.15 L3.75 0.25 3.45 0.65 2.5 0.85 3.2 1.1 Q4.3 1.45 4.4 2.7 L4.15 4.3 Q3.9 5.05 3.15 5.15 L1.9 5.35 Q2.7 6.55 1.75 7.7 L0.8 8.7 0.4 8.8 -0.35 8.8 -1.25 8.4 -2.35 6.95 -7.95 4.75 -9.15 3.75 Q-9.15 3.15 -8.5 2.75 -7.9 2.3 -7.0 2.3 L-6.35 2.6 Q-4.6 3.75 -2.3 4.05 L-0.85 4.4 Q0.45 4.4 0.25 4.0 L-1.7 3.1 0.95 3.85 Q2.15 4.05 2.0 3.5 L2.7 2.7 2.7 2.55 2.1 2.25 Q0.5 1.55 -1.35 1.3 L-2.65 0.65 Q-3.75 0.0 -4.95 0.25 L-5.25 1.1 -3.3 2.35 -5.3 1.45 M0.25 4.95 L0.55 5.6 1.05 6.3 0.25 7.6 -0.9 7.0 -1.85 7.05 Q-1.35 8.05 -0.25 8.35 1.8 8.25 1.9 6.15 1.35 4.8 -0.15 4.6 L0.25 4.95 M4.0 2.25 L2.85 1.45 1.65 1.55 3.05 2.2 3.55 2.9 2.75 4.1 2.05 4.0 0.85 4.1 2.6 5.05 3.75 4.5 4.35 2.75 4.0 2.25 M3.1 3.15 Q2.9 3.2 2.8 3.35 L2.4 3.8 3.1 3.15 M6.9 6.85 L5.85 7.9 4.5 8.8 Q2.15 10.25 -0.6 11.7 L-2.15 12.2 -4.15 12.6 -9.85 11.95 Q-11.7 11.7 -13.15 10.95 L-13.1 12.1 -11.6 13.0 -9.85 13.55 -4.05 14.1 -2.05 13.7 -0.65 13.25 4.9 10.0 Q6.85 8.9 6.9 6.85 M0.6 6.4 L0.3 6.0 -0.5 6.9 -0.35 7.05 0.5 6.85 0.6 6.4 M-0.1 5.85 L-0.05 5.4 -0.25 5.15 Q-0.55 4.7 -1.3 4.65 -4.1 4.15 -6.7 3.0 L-8.15 2.85 -8.65 3.65 Q-6.2 5.2 -3.3 6.3 L-1.1 6.6 Q-0.4 6.45 -0.1 5.85" fill="#000000" fill-rule="evenodd" stroke="none"/>
      <path d="M-3.45 -0.05 L-4.4 -0.45 -5.7 0.6 -5.3 1.45 -6.35 2.6 -7.0 2.3 -6.75 2.15 -6.05 1.65 -6.15 0.65 Q-6.0 -0.6 -4.75 -0.85 L1.65 0.95 1.25 1.2 -3.45 -0.05 M-9.15 3.75 L-7.95 4.75 Q-8.1 5.65 -7.05 6.25 L-5.75 6.85 Q-3.35 7.45 -1.25 8.4 L-0.35 8.8 0.4 8.8 0.8 8.7 1.6 8.35 Q4.5 7.7 6.55 5.75 L6.65 5.55 5.95 6.7 5.0 7.7 0.25 10.55 -10.65 4.75 -9.3 3.9 -9.15 3.75 M3.2 1.1 L2.5 0.85 3.45 0.65 3.95 0.3 4.6 -2.4 Q5.45 -2.45 5.65 -1.95 L6.25 -0.65 Q6.85 0.75 6.8 2.25 L5.95 0.4 3.2 1.1" fill="#8e0b04" fill-rule="evenodd" stroke="none"/>
      <path d="M-5.3 1.45 L-3.3 2.35 -1.7 3.1 0.25 4.0 Q0.45 4.4 -0.85 4.4 L-2.3 4.05 Q-4.6 3.75 -6.35 2.6 L-5.3 1.45 M-7.95 4.75 L-2.35 6.95 -1.25 8.4 Q-3.35 7.45 -5.75 6.85 L-7.05 6.25 Q-8.1 5.65 -7.95 4.75 M0.8 8.7 L1.75 7.7 Q2.7 6.55 1.9 5.35 L3.15 5.15 Q3.9 5.05 4.15 4.3 L4.4 2.7 Q4.3 1.45 3.2 1.1 L5.95 0.4 6.8 2.25 6.55 5.75 Q4.5 7.7 1.6 8.35 L0.8 8.7 M3.45 0.65 L3.75 0.25 4.0 -1.15 Q4.05 -1.9 4.6 -2.4 L3.95 0.3 3.45 0.65 M1.25 1.2 L1.0 1.4 -1.6 0.7 -3.45 -0.05 1.25 1.2 M3.1 3.15 L2.4 3.8 2.8 3.35 Q2.9 3.2 3.1 3.15 M0.6 6.4 L0.5 6.85 -0.35 7.05 -0.5 6.9 0.3 6.0 0.6 6.4" fill="#e21e0a" fill-rule="evenodd" stroke="none"/>
      <path d="M-7.0 2.3 Q-7.9 2.3 -8.5 2.75 -9.15 3.15 -9.15 3.75 L-9.3 3.9 Q-10.05 2.3 -8.45 1.55 L-8.1 1.45 -7.8 1.5 -6.75 2.15 -7.0 2.3 M4.0 2.25 L4.35 2.75 3.75 4.5 2.6 5.05 0.85 4.1 2.05 4.0 2.75 4.1 3.55 2.9 3.05 2.2 1.65 1.55 2.85 1.45 4.0 2.25 M0.25 4.95 L-0.15 4.6 Q1.35 4.8 1.9 6.15 1.8 8.25 -0.25 8.35 -1.35 8.05 -1.85 7.05 L-0.9 7.0 0.25 7.6 1.05 6.3 0.55 5.6 0.25 4.95" fill="#e0d3d1" fill-rule="evenodd" stroke="none"/>
      <path d="M-3.3 2.35 L-5.25 1.1 -4.95 0.25 Q-3.75 0.0 -2.65 0.65 L-1.35 1.3 Q0.5 1.55 2.1 2.25 L2.7 2.55 2.7 2.7 2.0 3.5 Q2.15 4.05 0.95 3.85 L-1.7 3.1 -3.3 2.35 M-0.1 5.85 Q-0.4 6.45 -1.1 6.6 L-3.3 6.3 Q-6.2 5.2 -8.65 3.65 L-8.15 2.85 -6.7 3.0 Q-4.1 4.15 -1.3 4.65 -0.55 4.7 -0.25 5.15 L-0.05 5.4 -0.1 5.85" fill="#ffffff" fill-rule="evenodd" stroke="none"/>
      <path d="M6.9 6.85 L6.25 8.0 Q5.45 9.1 4.25 9.7 L2.25 10.95 -0.6 12.65 -2.1 13.35 Q-6.95 13.95 -11.7 12.5 -12.95 12.15 -13.15 10.95 -11.7 11.7 -9.85 11.95 L-4.15 12.6 -2.15 12.2 -0.6 11.7 Q2.15 10.25 4.5 8.8 L5.85 7.9 6.9 6.85" fill="#f9f4f4" fill-rule="evenodd" stroke="none"/>
      <path d="M-13.15 10.95 Q-12.95 12.15 -11.7 12.5 -6.95 13.95 -2.1 13.35 L-0.6 12.65 2.25 10.95 4.25 9.7 Q5.45 9.1 6.25 8.0 L6.9 6.85 Q6.85 8.9 4.9 10.0 L-0.65 13.25 -2.05 13.7 -4.05 14.1 -9.85 13.55 -11.6 13.0 -13.1 12.1 -13.15 10.95" fill="#cce1ea" fill-rule="evenodd" stroke="none"/>
      <path d="M0.25 10.55 L-0.65 11.0 -1.5 11.25 Q-6.25 12.15 -11.1 11.0 -12.3 10.7 -13.1 9.7 L-13.2 8.5 -12.95 6.7 Q-12.7 5.75 -11.65 5.2 L-10.65 4.75 0.25 10.55" fill="#f9f9f9" fill-rule="evenodd" stroke="none"/>
    </g>
  </defs>
</svg>
